%
(VIJAK M24)
( QAPT->LINUXCNC )
( 24. 09. 2020 )
#<_toolchange_pos_x> = [#5181 *2]
#<_toolchange_pos_z> = #5183
G64P.01
G07
G21
G54
G40
G90

G53 G0 X#<_toolchange_pos_x>
G53 G0 Z#<_toolchange_pos_z>
(   ZUNANJI NOZ   GROBI  0.8 )
M6 T1
G43
M08
M43
G96 D2000 S150 M3
G00 X44. Z1.2
X40.6 Z1.6
G01 Z-74.7 F0.1
G00 X42.6 Z-73.7
Z1.6
X38.6
G01 Z-74.7
G00 X40.6 Z-73.7
Z1.6
X36.6
G01 Z-74.7
G00 X38.6 Z-73.7
Z1.6
X34.6
G01 Z-29.9
G00 X36.6 Z-28.9
Z1.6
X32.6
G01 Z-29.9
G00 X34.6 Z-28.9
Z1.6
X30.6
G01 Z-29.9
G00 X32.6 Z-28.9
Z1.6
X28.6
G01 Z-29.9
G00 X30.6 Z-28.9
Z1.6
X26.6
G01 Z-29.9
G00 X28.6 Z-28.9
Z1.6
X24.6
G01 Z-2.868
G00 X26.6 Z-1.868
Z1.6
X22.6
G01 Z-1.868
G00 X24.6 Z-0.868
Z1.6
X20.6
G01 Z-0.868
G00 X22.6 Z0.132
X44.6
Z-22.452
X28.601
G01 X26.601
X24.601 Z-24.414
X24.6 Z-29.9
G00 X26.6 Z-28.9
Z-24.184
G01 X24.6
X22.6 Z-26.147
Z-29.9
G00 X24.6 Z-28.9
Z-25.916
G01 X22.6
X20.6 Z-27.879
Z-29.629
G00 X22.6 Z-28.629
X44.6
Z1.3
X19.132
G01 Z-0.134
X24.601 Z-2.868
Z-24.414
X20.415 Z-28.039
X20.339 Z-28.114
G02 X20.201 Z-28.439 I0.73 K-0.325
G01 Z-29.1
G02 X21.8 Z-29.9 I0.8 K0.
G01 X35.601
Z-74.7
X42.6
G00 Z1.3
X44.6
X21. Z0.
G01 X-0.8
G00 X21. Z0.5
X75. Z10.

G53 G0 X#<_toolchange_pos_x>
G53 G0 Z#<_toolchange_pos_z>
(   ZUNANJI NOZ  FINI  0.4 )
M6 T2
G43
M08
M43
G96 D2000 S150 M3
G00 X21. Z0.
G01 X-0.8 F0.1
G00 X21. Z0.5
Z2.4
G01 X17.366 Z0.583 F0.08
X23.766 Z-2.617
G03 X24. Z-2.9 I-0.283 K-0.283
G01 Z-23.9
G03 X23.913 Z-24.082 I-0.4 K0.
G01 X19.6 Z-28.314
Z-28.8
G02 X22. Z-30. I1.2 K0.
G01 X34.2
G03 X35. Z-30.4 I0. K-0.4
G01 Z-70.4
Z-74.4
G00 X75. Z10.

G53 G0 X#<_toolchange_pos_x>
G53 G0 Z#<_toolchange_pos_z>
(   SVEDER VIJACNI  10. )
M6 T5
G43
M08
M43
G96 D2000 S950 M3
G97 S950 M3
G00 X0. Z1.
G17
G83 Z-15. X0 R1. Q5. F0.1
G80
G18
G0X75. Z10.

G53 G0 X#<_toolchange_pos_x>
G53 G0 Z#<_toolchange_pos_z>
(   NOTRANJI FINI NOZ  0.4 )
M6 T6
G43
M08
M43
G96 D2000 S150 M3
G00 X10.6 Z0.7
G01 X11.534 Z0.233 F0.08
X10. Z-0.534
Z-14.4
X9.8
G00 Z3.3
X75. Z10.

G53 G0 X#<_toolchange_pos_x>
G53 G0 Z#<_toolchange_pos_z>
(   ZUNANJI NOZ   NAVOJNI  0.1 )
M6 T4
G43
M08
M43
G96 D2000 S300 M3
G97 S300 M3
G00 X24. Z3.
G76 P3. Z-28.2 I0.25 J0.4 K1.6 Q30. L2 E1.6 R1.3
G00 X75. Z10.

G53 G0 X#<_toolchange_pos_x>
G53 G0 Z#<_toolchange_pos_z>
(   ZUNANJI UTORNI NOZ  0.2 )
M6 T3
G43
M08
M43
G96 D2000 S150 M3
G00 X42. Z-73.
G01 X31.8 F0.08
X36. F0.15
Z-72.2
X35. Z-71.8 F0.08
G03 X32.6 Z-73. I-1.2 K0.
G01 X-0.4
G00 X45.6
X75. Z10.

M09
M05
G53 G0 X#<_toolchange_pos_x>
G53 G0 Z#<_toolchange_pos_z>
%

